public/images/confirmation.svg

<svg width="145" height="145" viewBox="0 0 145 145" fill="none" xmlns="http://www.w3.org/2000/svg">
<path d="M145 72.5C145 112.541 112.541 145 72.5 145C32.4592 145 0 112.541 0 72.5C0 32.4592 32.4592 0 72.5 0C112.541 0 145 32.4592 145 72.5ZM64.114 110.888L117.904 57.0978C119.731 55.2713 119.731 52.3096 117.904 50.4831L111.29 43.8683C109.463 42.0415 106.501 42.0415 104.674 43.8683L60.8064 87.7361L40.3255 67.2552C38.499 65.4286 35.5373 65.4286 33.7105 67.2552L27.0957 73.8699C25.2692 75.6964 25.2692 78.6581 27.0957 80.4846L57.4989 110.888C59.3258 112.715 62.2871 112.715 64.114 110.888V110.888Z" fill="#850038"/>
</svg>

<?xml version="1.0" encoding="utf-8"?>
<!-- Generator: Adobe Illustrator 23.0.4, SVG Export Plug-In . SVG Version: 6.00 Build 0)  -->
<svg version="1.1" id="Calque_1" xmlns="http://www.w3.org/2000/svg" xmlns:xlink="http://www.w3.org/1999/xlink" x="0px" y="0px"
	 viewBox="0 0 145 145" style="enable-background:new 0 0 145 145;" xml:space="preserve">
<style type="text/css">
	.st0{fill:#850038;}
</style>
<path class="st0" d="M145,72.5c0,40-32.5,72.5-72.5,72.5C32.5,145,0,112.5,0,72.5C0,32.5,32.5,0,72.5,0C112.5,0,145,32.5,145,72.5z
	 M64.1,110.9l53.8-53.8c1.8-1.8,1.8-4.8,0-6.6l-6.6-6.6c-1.8-1.8-4.8-1.8-6.6,0L60.8,87.7L40.3,67.3c-1.8-1.8-4.8-1.8-6.6,0
	l-6.6,6.6c-1.8,1.8-1.8,4.8,0,6.6l30.4,30.4C59.3,112.7,62.3,112.7,64.1,110.9L64.1,110.9z"/>
</svg>
